overrides/.icons/option/feat-origin.svg

<?xml version="1.0" encoding="UTF-8" standalone="no"?>
<svg
   viewBox="0 0 24 24"
   version="1.1"
   id="svg1"
   sodipodi:docname="feat-origin.svg"
   inkscape:version="1.3.2 (091e20e, 2023-11-25, custom)"
   xml:space="preserve"
   xmlns:inkscape="http://www.inkscape.org/namespaces/inkscape"
   xmlns:sodipodi="http://sodipodi.sourceforge.net/DTD/sodipodi-0.dtd"
   xmlns="http://www.w3.org/2000/svg"
   xmlns:svg="http://www.w3.org/2000/svg"><defs
     id="defs1" /><sodipodi:namedview
     id="namedview1"
     pagecolor="#ffffff"
     bordercolor="#111111"
     borderopacity="1"
     inkscape:showpageshadow="0"
     inkscape:pageopacity="0"
     inkscape:pagecheckerboard="1"
     inkscape:deskcolor="#d1d1d1"
     inkscape:zoom="15.291184"
     inkscape:cx="6.9647974"
     inkscape:cy="10.038464"
     inkscape:window-width="1366"
     inkscape:window-height="697"
     inkscape:window-x="-8"
     inkscape:window-y="-8"
     inkscape:window-maximized="1"
     inkscape:current-layer="svg1" /><path
     id="path1"
     d="M 7 2 C 5.9000022 2 5 2.9000022 5 4 L 5 20 C 5 21.099998 5.9000022 22 7 22 L 17 22 C 18.099998 22 19 21.099998 19 20 L 19 4 C 19 2.9000022 18.099998 2 17 2 L 7 2 z M 11.96875 4.8554688 C 12.804463 4.8430804 13.603461 5.3243872 13.957031 6.1386719 A 2.1357143 2.1357143 0 0 1 12.857422 8.9589844 L 12.90625 9.1445312 L 14.857422 9.1445312 L 14.857422 10.574219 L 13.300781 10.574219 L 14.857422 16.287109 L 9.1425781 16.287109 L 10.699219 10.574219 L 9.1425781 10.574219 L 9.1425781 9.1445312 L 11.085938 9.1445312 L 11.134766 8.9589844 A 2.1214286 2.1214286 0 0 1 10.035156 7.859375 C 9.5565855 6.7736618 10.049047 5.5085375 11.134766 5.0371094 C 11.406194 4.9174666 11.690179 4.8595982 11.96875 4.8554688 z M 7 17.716797 L 17 17.716797 L 17 19.144531 L 7 19.144531 L 7 17.716797 z " /></svg>

<?xml version="1.0" encoding="UTF-8"?>
<svg id="svg1" version="1.1" viewBox="0 0 24 24" xml:space="preserve" xmlns="http://www.w3.org/2000/svg"><path id="path1" d="m7 2c-1.1 0-2 0.9-2 2v16c0 1.1 0.9 2 2 2h10c1.1 0 2-0.9 2-2v-16c0-1.1-0.9-2-2-2h-10zm4.9688 2.8555c0.83571-0.012388 1.6347 0.46892 1.9883 1.2832a2.1357 2.1357 0 0 1-1.0996 2.8203l0.048828 0.18555h1.9512v1.4297h-1.5566l1.5566 5.7129h-5.7148l1.5566-5.7129h-1.5566v-1.4297h1.9434l0.048828-0.18555a2.1214 2.1214 0 0 1-1.0996-1.0996c-0.47857-1.0857 0.013891-2.3508 1.0996-2.8223 0.27143-0.11964 0.55541-0.17751 0.83398-0.18164zm-4.9688 12.861h10v1.4277h-10v-1.4277z"/></svg>
